assets/encircled-multiply-fill.svg

<svg xmlns="http://www.w3.org/2000/svg" fill="none" viewBox="0 0 29 29">
  <path fill="#2A2238" fill-rule="evenodd" d="M24.6985 4.89952c5.4673 5.46738 5.4673 14.33168 0 19.79898-5.4674 5.4673-14.3317 5.4673-19.79901 0-5.467335-5.4673-5.467335-14.3316 0-19.79898 5.46731-5.467344 14.33161-5.467344 19.79901 0ZM8.61181 20.9862c-.2929-.2929-.2929-.7678 0-1.0607l5.12649-5.1265-4.41939-4.4194c-.29289-.2929-.29289-.76777 0-1.06067.2929-.29289.76779-.29289 1.06069 0l4.4194 4.41947 4.4194-4.41947c.2929-.29289.7678-.29289 1.0607 0 .2929.2929.2929.76777 0 1.06067l-4.4195 4.4194 5.1266 5.1265c.2929.2929.2929.7678 0 1.0607-.2929.2929-.7678.2929-1.0607 0l-5.1265-5.1265-5.12653 5.1265c-.2929.2929-.76777.2929-1.06066 0Z" clip-rule="evenodd"/>
</svg>

<svg width="29" height="29" viewBox="0 0 29 29" fill="none" xmlns="http://www.w3.org/2000/svg">
<path fill-rule="evenodd" clip-rule="evenodd" d="M24.6985 4.89952C30.1658 10.3669 30.1658 19.2312 24.6985 24.6985C19.2311 30.1658 10.3668 30.1658 4.89949 24.6985C-0.567845 19.2312 -0.567845 10.3669 4.89949 4.89952C10.3668 -0.567824 19.2311 -0.567824 24.6985 4.89952ZM8.61181 20.9862C8.31891 20.6933 8.31891 20.2184 8.61181 19.9255L13.7383 14.799L9.31891 10.3796C9.02602 10.0867 9.02602 9.61183 9.31891 9.31893C9.61181 9.02604 10.0867 9.02604 10.3796 9.31893L14.799 13.7384L19.2184 9.31893C19.5113 9.02604 19.9862 9.02604 20.2791 9.31893C20.572 9.61183 20.572 10.0867 20.2791 10.3796L15.8596 14.799L20.9862 19.9255C21.2791 20.2184 21.2791 20.6933 20.9862 20.9862C20.6933 21.2791 20.2184 21.2791 19.9255 20.9862L14.799 15.8597L9.67247 20.9862C9.37957 21.2791 8.9047 21.2791 8.61181 20.9862Z" fill="#2A2238"/>
</svg>
